X:1
T:Laurels, Fresh Laurels
T:Laurels, Fresh Laurels
T:William Batchelder Bradbury
T:Frances Jane (Fanny) Crosby, 1867
T:Public Domain Courtesy of the Cyber Hymnal™
T:Public Domain Courtesy of the Cyber Hymnal™
C:William Batchelder Bradbury
Z:Public Domain
Z:Courtesy of the Cyber Hymnal™
%%score ( 1 2 ) ( 3 4 )
L:1/8
Q:1/4=90
M:2/4
K:E
V:1 treble 
V:2 treble 
V:3 bass 
V:4 bass 
V:1
|:"^1st and 2d Semi-Chorus" [EG] [GB]2 [GB] | [Ac] [GB]2 [GB]/[GB]/ | [GB][EG] [DF][DF] | [EG]3 :| %4
w: 1.~Laur- els, fresh|laur- els, For the|Sun- day School we|bring;|
w: 2.~Laur- els, “Fresh|Laur- els,” For the|Sun- day School to|wear;|
w: 3.~Laur- els, “Fresh|Laur- els,” Then a-|wake the song a-|new.|
"^Refrain" [EG]/[FA]/ | [GB][GB] [Ac][Bd] | [ce]2 [Bd][Ac]/[Ac]/ | [GB][EG] [EG][EG] | [DF]3 [DF] | %9
w: They will|bloom in fade- less|ver- dure Through a|calm e- ter- nal|spring; Then|
w: All may|win the pre- cious|gar- land, All the|flam- ing crown may|wear; The|
w: They will|make you good and|gen- tle, You will|love and praise them,|too; Oh,|
 [DF][DB] [DB][C^A]/[DB]/ | [Ec][Ec] [Ec][EF] | [Ec][Ec] [Ec][DB]/[Ec]/ | [Fd][Fd] [Fd] z | %13
w: glad- ly hail with a|pure de- light, Oh,|hail our beau- ti- ful|wreath so bright;|
w: smile of hope and the|dew of prayer, Has|made this beau- ti- ful|wreath so fair.|
w: meet in hea- ven the|heart so true, That|twined the beau- t- iful|wreath for you.|
 [Ge]2 [Bd][Ac] | [GB] [EG]2 [EG]/[EG]/ | [FA][FA] [FA][EG]/[DF]/ | [EG][FA] [GB]2 | %17
w: Laur- els, “Fresh|Laur- els,” For the|Sun- day School, For the|Sun- day School,|
w: Laur- els, “Fresh|Laur- els,” For the|Sun- day School, For the|Sun- day School,|
w: Laur- els, “Fresh|Laur- els,” Then a-|wake the song, Then a-|wake the song.|
 [Ge]2 [Bd][Ac] | [GB] [EG]2 [EG]/[EG]/ | [FA][FA] [DF][DF] | E3 z |] %21
w: Laur- els, “Fresh|Laur- els,” For the|Sun- day School we|bring.|
w: Laur- els, “Fresh|Laur- els,” For the|Sun- day School to|wear.|
w: Laur- els, “Fresh|Laur- els,” Then a-|wake the song so|new.|
V:2
|: x4 | x4 | x4 | x3 :| x | x4 | x4 | x4 | x4 | x4 | x4 | x4 | x4 | x4 | x4 | x4 | x4 | x4 | x4 | %19
 x4 | E3 x |] %21
V:3
|: [E,B,] [E,B,]2 [E,B,] | [E,B,] [E,B,]2 [E,B,]/[E,B,]/ | [E,B,][E,B,] [B,,B,][B,,B,] | [E,B,]3 :| %4
 [E,B,]/[E,B,]/ | [E,B,][E,B,] [E,B,][E,B,] | [E,B,]2 [F,B,]E,/E,/ | E,[E,B,] [E,B,][E,B,] | %8
 [B,,B,]3 [B,,B,] | [B,,B,][B,,F,] [B,,F,][B,,F,]/[B,,F,]/ | [F,^A,][F,A,] [F,A,][F,A,] | %11
 [F,A,][F,A,] [F,A,][F,B,]/[F,^A,]/ | B,B, B, z | [E,B,]2 A,[A,E] | [E,E] [E,B,]2 [E,B,]/[E,B,]/ | %15
 [B,,B,][B,,B,] [B,,B,][B,,B,]/[B,,B,]/ | [E,B,][E,B,] [E,B,]2 | [E,B,]2 A,[A,E] | %18
 [E,E] [E,B,]2 [E,B,]/[E,B,]/ | [B,,B,][B,,B,] [B,,B,][B,,B,] | [E,G,]3 z |] %21
V:4
|: x4 | x4 | x4 | x3 :| x | x4 | x3 E,/E,/ | E, x3 | x4 | x4 | x4 | x4 | B,B, B, x | x2 A, x | x4 | %15
 x4 | x4 | x2 A, x | x4 | x4 | x4 |] %21

